X:2610
T:The Frisky
P:Humber Jumber
C:Traditional Singing Game
R:Jig (8x32)
B:RSCDS 26-10
Z:Anselm Lingnau <anselm@strathspey.org>
M:6/8
L:1/8
K:G
D|"G"G2 G G2 B|"G/B"d2 d d2 d|"D7"cBA "G"B2 G|"D"A2 D D2 z|
  "G"G2 G G2 B|"Bm"d2 d d2 d|"Am7"cde "D"d2 c|"G"B2 G G2||
G|"C"e2 e e2 e|"G/B"d2 d d2 d|"D"cBA "G"B2 G|"D"A2 D D2 z|
  "G"[G2D2] [GC] [G2B,2] B|"Bm"[d2F2] [dF] [d2F2] d|\
      "Am7"cde "D"[d2F2] [cA]|"G"[B2G2] G G2|]
